Newaita-dark/apps/48/hwinfo.svg

<svg height="48pt" viewBox="0 0 48 48" width="48pt" xmlns="http://www.w3.org/2000/svg" xmlns:xlink="http://www.w3.org/1999/xlink"><linearGradient id="a"><stop offset="0" stop-opacity=".313725"/><stop offset=".222222" stop-opacity=".27451"/><stop offset="1" stop-opacity="0"/></linearGradient><radialGradient id="b" cx="450.908936" cy="189.579361" gradientTransform="matrix(.00000026 -.117199 -.210958 -.00000015 66.784728 95.392994)" gradientUnits="userSpaceOnUse" r="21.166656" xlink:href="#a"/><radialGradient id="c" cx="450.908936" cy="189.579361" gradientTransform="matrix(-.00000026 .117199 .210958 .00000015 -19.155178 -11.291223)" gradientUnits="userSpaceOnUse" r="21.166656" xlink:href="#a"/><radialGradient id="d" cx="450.908936" cy="189.579361" gradientTransform="matrix(-.00000026 -.117199 .210958 -.00000015 -19.155178 95.392994)" gradientUnits="userSpaceOnUse" r="21.166656" xlink:href="#a"/><radialGradient id="e" cx="450.908936" cy="189.579361" gradientTransform="matrix(.00000026 .117199 -.210958 .00000015 66.784725 -11.291224)" gradientUnits="userSpaceOnUse" r="21.166656" xlink:href="#a"/><linearGradient id="f" gradientTransform="matrix(.0200401 0 0 .093759 18.698079 20.158175)" gradientUnits="userSpaceOnUse" x1="255.323059" x2="255.323044" y1="233.5" y2="254.666656"><stop offset="0" stop-opacity=".27451"/><stop offset="1" stop-opacity="0"/></linearGradient><linearGradient id="g" gradientUnits="userSpaceOnUse" x1="23.814816" x2="23.814816" y1="42.05096580616" y2="4.34417266504"><stop offset="0" stop-color="#e0e0e0"/><stop offset="1" stop-color="#eee"/></linearGradient><linearGradient id="h" gradientTransform="matrix(.0175412 -.0175412 -.0175412 -.0175412 23.378315 56.440223)" gradientUnits="userSpaceOnUse" x1="920" x2="920" y1="175.117188" y2="1695.117188"><stop offset="0" stop-color="#ef5350"/><stop offset="1" stop-color="#e57373"/></linearGradient><path d="m27.289062 42.050781h3.96875v-1.984375h-3.96875zm0 0" fill="url(#b)"/><path d="m20.339844 42.050781h-3.96875v1.984375h3.96875zm0 0" fill="url(#c)"/><path d="m20.339844 42.050781h-3.96875v-1.984375h3.96875zm0 0" fill="url(#d)"/><path d="m27.289062 42.050781h3.96875v1.984375h-3.96875zm0 0" fill="url(#e)"/><path d="m20.339844 41.554688h6.949218v2.480468h-6.949218zm0 0" fill="url(#f)"/><path d="m23.816406 4.34375c-10.445312 0-18.855468 8.410156-18.855468 18.855469 0 10.441406 8.410156 18.851562 18.855468 18.851562 10.441406 0 18.851563-8.410156 18.851563-18.851562 0-10.445313-8.410157-18.855469-18.851563-18.855469zm0 10.914062c4.394532 0 7.9375 3.542969 7.9375 7.941407 0 4.394531-3.542968 7.9375-7.9375 7.9375-4.398437 0-7.941406-3.542969-7.941406-7.9375 0-4.398438 3.542969-7.941407 7.941406-7.941407zm0 0" fill="url(#g)"/><path d="m10.484375 9.867188c-1.335937 1.335937-2.429687 2.816406-3.28125 4.394531l9.246094 5.777343.140625-.140624c.382812-.835938.921875-1.621094 1.613281-2.3125.691406-.691407 1.476563-1.230469 2.3125-1.613282l.140625-.140625-5.777344-9.246093c-1.578125.851562-3.058594 1.945312-4.394531 3.28125zm-3.28125 22.265624c.851563 1.578126 1.945313 3.058594 3.28125 4.394532 1.335937 1.335937 2.816406 2.429687 4.394531 3.285156l5.777344-9.246094-.140625-.144531c-.835937-.382813-1.621094-.917969-2.3125-1.609375s-1.230469-1.480469-1.613281-2.316406l-.140625-.140625zm25.546875-25.546874-5.777344 9.246093.140625.140625c.835938.382813 1.625.921875 2.316407 1.613282.691406.691406 1.226562 1.476562 1.609374 2.3125l.144532.140624 9.246094-5.777343c-.855469-1.578125-1.949219-3.058594-3.285157-4.394531-1.332031-1.335938-2.816406-2.429688-4.394531-3.28125zm-5.777344 23.980468 5.777344 9.246094c1.578125-.855469 3.0625-1.949219 4.394531-3.285156 1.335938-1.335938 2.429688-2.816406 3.285157-4.394532l-9.246094-5.777343-.144532.140625c-.382812.835937-.917968 1.625-1.609374 2.316406-.691407.691406-1.480469 1.226562-2.316407 1.609375zm0 0" fill="url(#h)"/><path d="m23.816406 42.050781c-10.445312 0-18.855468-8.410156-18.855468-18.851562 0-.0625 0-.125 0-.1875.101562 10.359375 8.472656 18.667969 18.855468 18.667969 10.382813 0 18.753906-8.308594 18.851563-18.667969v.1875c0 10.441406-8.410157 18.851562-18.851563 18.851562zm0 0" fill-opacity=".196078"/><path d="m23.816406 4.34375c-10.445312 0-18.855468 8.410156-18.855468 18.855469v.183593c.101562-10.359374 8.472656-18.667968 18.855468-18.667968 10.382813 0 18.753906 8.308594 18.851563 18.667968 0-.0625 0-.125 0-.183593 0-10.445313-8.410157-18.855469-18.851563-18.855469zm0 0" fill="#fff" fill-opacity=".392157"/><path d="m23.816406 4.203125c-10.523437 0-18.996094 8.472656-18.996094 18.996094 0 10.519531 8.472657 18.992187 18.996094 18.992187 10.519532 0 18.992188-8.472656 18.992188-18.992187 0-10.523438-8.472656-18.996094-18.992188-18.996094zm0 .28125c10.367188 0 18.710938 8.34375 18.710938 18.714844 0 10.367187-8.34375 18.710937-18.710938 18.710937-10.371094 0-18.714844-8.34375-18.714844-18.710937 0-10.371094 8.34375-18.714844 18.714844-18.714844zm0 0" fill="#212121"/><path d="m23.816406 4.203125c-10.523437 0-18.996094 8.472656-18.996094 18.996094 0 10.519531 8.472657 18.992187 18.996094 18.992187 10.519532 0 18.992188-8.472656 18.992188-18.992187 0-10.523438-8.472656-18.996094-18.992188-18.996094zm0 .28125c10.367188 0 18.710938 8.34375 18.710938 18.714844 0 10.367187-8.34375 18.710937-18.710938 18.710937-10.371094 0-18.714844-8.34375-18.714844-18.710937 0-10.371094 8.34375-18.714844 18.714844-18.714844zm0 10.632813c-4.476562 0-8.082031 3.605468-8.082031 8.082031 0 4.472656 3.605469 8.078125 8.082031 8.078125 4.472656 0 8.078125-3.605469 8.078125-8.078125 0-4.476563-3.605469-8.082031-8.078125-8.082031zm0 .28125c4.320313 0 7.796875 3.476562 7.796875 7.800781 0 4.320312-3.476562 7.796875-7.796875 7.796875-4.324218 0-7.800781-3.476563-7.800781-7.796875 0-4.324219 3.476563-7.800781 7.800781-7.800781zm0 0" fill="#333"/></svg>

<?xml version="1.0" encoding="UTF-8"?>
<svg xmlns="http://www.w3.org/2000/svg" xmlns:xlink="http://www.w3.org/1999/xlink" width="48pt" height="48pt" viewBox="0 0 48 48" version="1.1">
<defs>
<radialGradient id="radial0" gradientUnits="userSpaceOnUse" cx="450.908936" cy="189.579361" fx="450.908936" fy="189.579361" r="21.166656" gradientTransform="matrix(0.000000261256,-0.117199,-0.210958,-0.000000152308,66.784728,95.392994)">
<stop offset="0" style="stop-color:rgb(0%,0%,0%);stop-opacity:0.313725;"/>
<stop offset="0.222222" style="stop-color:rgb(0%,0%,0%);stop-opacity:0.27451;"/>
<stop offset="1" style="stop-color:rgb(0%,0%,0%);stop-opacity:0;"/>
</radialGradient>
<radialGradient id="radial1" gradientUnits="userSpaceOnUse" cx="450.908936" cy="189.579361" fx="450.908936" fy="189.579361" r="21.166656" gradientTransform="matrix(-0.000000261256,0.117199,0.210958,0.000000152308,-19.155178,-11.291223)">
<stop offset="0" style="stop-color:rgb(0%,0%,0%);stop-opacity:0.313725;"/>
<stop offset="0.222222" style="stop-color:rgb(0%,0%,0%);stop-opacity:0.27451;"/>
<stop offset="1" style="stop-color:rgb(0%,0%,0%);stop-opacity:0;"/>
</radialGradient>
<radialGradient id="radial2" gradientUnits="userSpaceOnUse" cx="450.908936" cy="189.579361" fx="450.908936" fy="189.579361" r="21.166656" gradientTransform="matrix(-0.000000261256,-0.117199,0.210958,-0.000000152308,-19.155178,95.392994)">
<stop offset="0" style="stop-color:rgb(0%,0%,0%);stop-opacity:0.313725;"/>
<stop offset="0.222222" style="stop-color:rgb(0%,0%,0%);stop-opacity:0.27451;"/>
<stop offset="1" style="stop-color:rgb(0%,0%,0%);stop-opacity:0;"/>
</radialGradient>
<radialGradient id="radial3" gradientUnits="userSpaceOnUse" cx="450.908936" cy="189.579361" fx="450.908936" fy="189.579361" r="21.166656" gradientTransform="matrix(0.000000261256,0.117199,-0.210958,0.000000152308,66.784725,-11.291224)">
<stop offset="0" style="stop-color:rgb(0%,0%,0%);stop-opacity:0.313725;"/>
<stop offset="0.222222" style="stop-color:rgb(0%,0%,0%);stop-opacity:0.27451;"/>
<stop offset="1" style="stop-color:rgb(0%,0%,0%);stop-opacity:0;"/>
</radialGradient>
<linearGradient id="linear0" gradientUnits="userSpaceOnUse" x1="255.323059" y1="233.5" x2="255.323044" y2="254.666656" gradientTransform="matrix(0.0200401,0,0,0.093759,18.698079,20.158175)">
<stop offset="0" style="stop-color:rgb(0%,0%,0%);stop-opacity:0.27451;"/>
<stop offset="1" style="stop-color:rgb(0%,0%,0%);stop-opacity:0;"/>
</linearGradient>
<linearGradient id="linear1" gradientUnits="userSpaceOnUse" x1="960" y1="1695.118164" x2="960" y2="175.118118" gradientTransform="matrix(0.0248071,0,0,0.0248071,0,0)">
<stop offset="0" style="stop-color:rgb(87.843137%,87.843137%,87.843137%);stop-opacity:1;"/>
<stop offset="1" style="stop-color:rgb(93.333333%,93.333333%,93.333333%);stop-opacity:1;"/>
</linearGradient>
<linearGradient id="linear2" gradientUnits="userSpaceOnUse" x1="920" y1="175.117188" x2="920" y2="1695.117188" gradientTransform="matrix(0.0175412,-0.0175412,-0.0175412,-0.0175412,23.378315,56.440223)">
<stop offset="0" style="stop-color:rgb(93.72549%,32.54902%,31.372549%);stop-opacity:1;"/>
<stop offset="1" style="stop-color:rgb(89.803922%,45.098039%,45.098039%);stop-opacity:1;"/>
</linearGradient>
</defs>
<g id="surface1">
<path style=" stroke:none;fill-rule:nonzero;fill:url(#radial0);" d="M 27.289062 42.050781 L 31.257812 42.050781 L 31.257812 40.066406 L 27.289062 40.066406 Z M 27.289062 42.050781 "/>
<path style=" stroke:none;fill-rule:nonzero;fill:url(#radial1);" d="M 20.339844 42.050781 L 16.371094 42.050781 L 16.371094 44.035156 L 20.339844 44.035156 Z M 20.339844 42.050781 "/>
<path style=" stroke:none;fill-rule:nonzero;fill:url(#radial2);" d="M 20.339844 42.050781 L 16.371094 42.050781 L 16.371094 40.066406 L 20.339844 40.066406 Z M 20.339844 42.050781 "/>
<path style=" stroke:none;fill-rule:nonzero;fill:url(#radial3);" d="M 27.289062 42.050781 L 31.257812 42.050781 L 31.257812 44.035156 L 27.289062 44.035156 Z M 27.289062 42.050781 "/>
<path style=" stroke:none;fill-rule:nonzero;fill:url(#linear0);" d="M 20.339844 41.554688 L 27.289062 41.554688 L 27.289062 44.035156 L 20.339844 44.035156 Z M 20.339844 41.554688 "/>
<path style=" stroke:none;fill-rule:nonzero;fill:url(#linear1);" d="M 23.816406 4.34375 C 13.371094 4.34375 4.960938 12.753906 4.960938 23.199219 C 4.960938 33.640625 13.371094 42.050781 23.816406 42.050781 C 34.257812 42.050781 42.667969 33.640625 42.667969 23.199219 C 42.667969 12.753906 34.257812 4.34375 23.816406 4.34375 Z M 23.816406 15.257812 C 28.210938 15.257812 31.753906 18.800781 31.753906 23.199219 C 31.753906 27.59375 28.210938 31.136719 23.816406 31.136719 C 19.417969 31.136719 15.875 27.59375 15.875 23.199219 C 15.875 18.800781 19.417969 15.257812 23.816406 15.257812 Z M 23.816406 15.257812 "/>
<path style=" stroke:none;fill-rule:nonzero;fill:url(#linear2);" d="M 10.484375 9.867188 C 9.148438 11.203125 8.054688 12.683594 7.203125 14.261719 L 16.449219 20.039062 L 16.589844 19.898438 C 16.972656 19.0625 17.511719 18.277344 18.203125 17.585938 C 18.894531 16.894531 19.679688 16.355469 20.515625 15.972656 L 20.65625 15.832031 L 14.878906 6.585938 C 13.300781 7.4375 11.820312 8.53125 10.484375 9.867188 Z M 7.203125 32.132812 C 8.054688 33.710938 9.148438 35.191406 10.484375 36.527344 C 11.820312 37.863281 13.300781 38.957031 14.878906 39.8125 L 20.65625 30.566406 L 20.515625 30.421875 C 19.679688 30.039062 18.894531 29.503906 18.203125 28.8125 C 17.511719 28.121094 16.972656 27.332031 16.589844 26.496094 L 16.449219 26.355469 Z M 32.75 6.585938 L 26.972656 15.832031 L 27.113281 15.972656 C 27.949219 16.355469 28.738281 16.894531 29.429688 17.585938 C 30.121094 18.277344 30.65625 19.0625 31.039062 19.898438 L 31.183594 20.039062 L 40.429688 14.261719 C 39.574219 12.683594 38.480469 11.203125 37.144531 9.867188 C 35.8125 8.53125 34.328125 7.4375 32.75 6.585938 Z M 26.972656 30.566406 L 32.75 39.8125 C 34.328125 38.957031 35.8125 37.863281 37.144531 36.527344 C 38.480469 35.191406 39.574219 33.710938 40.429688 32.132812 L 31.183594 26.355469 L 31.039062 26.496094 C 30.65625 27.332031 30.121094 28.121094 29.429688 28.8125 C 28.738281 29.503906 27.949219 30.039062 27.113281 30.421875 Z M 26.972656 30.566406 "/>
<path style=" stroke:none;fill-rule:nonzero;fill:rgb(0%,0%,0%);fill-opacity:0.196078;" d="M 23.816406 42.050781 C 13.371094 42.050781 4.960938 33.640625 4.960938 23.199219 C 4.960938 23.136719 4.960938 23.074219 4.960938 23.011719 C 5.0625 33.371094 13.433594 41.679688 23.816406 41.679688 C 34.199219 41.679688 42.570312 33.371094 42.667969 23.011719 C 42.667969 23.074219 42.667969 23.136719 42.667969 23.199219 C 42.667969 33.640625 34.257812 42.050781 23.816406 42.050781 Z M 23.816406 42.050781 "/>
<path style=" stroke:none;fill-rule:nonzero;fill:rgb(100%,100%,100%);fill-opacity:0.392157;" d="M 23.816406 4.34375 C 13.371094 4.34375 4.960938 12.753906 4.960938 23.199219 C 4.960938 23.257812 4.960938 23.320312 4.960938 23.382812 C 5.0625 13.023438 13.433594 4.714844 23.816406 4.714844 C 34.199219 4.714844 42.570312 13.023438 42.667969 23.382812 C 42.667969 23.320312 42.667969 23.257812 42.667969 23.199219 C 42.667969 12.753906 34.257812 4.34375 23.816406 4.34375 Z M 23.816406 4.34375 "/>
<path style=" stroke:none;fill-rule:nonzero;fill:rgb(12.941177%,12.941177%,12.941177%);fill-opacity:1;" d="M 23.816406 4.203125 C 13.292969 4.203125 4.820312 12.675781 4.820312 23.199219 C 4.820312 33.71875 13.292969 42.191406 23.816406 42.191406 C 34.335938 42.191406 42.808594 33.71875 42.808594 23.199219 C 42.808594 12.675781 34.335938 4.203125 23.816406 4.203125 Z M 23.816406 4.484375 C 34.183594 4.484375 42.527344 12.828125 42.527344 23.199219 C 42.527344 33.566406 34.183594 41.910156 23.816406 41.910156 C 13.445312 41.910156 5.101562 33.566406 5.101562 23.199219 C 5.101562 12.828125 13.445312 4.484375 23.816406 4.484375 Z M 23.816406 4.484375 "/>
<path style=" stroke:none;fill-rule:nonzero;fill:rgb(20%,20%,20%);fill-opacity:1;" d="M 23.816406 4.203125 C 13.292969 4.203125 4.820312 12.675781 4.820312 23.199219 C 4.820312 33.71875 13.292969 42.191406 23.816406 42.191406 C 34.335938 42.191406 42.808594 33.71875 42.808594 23.199219 C 42.808594 12.675781 34.335938 4.203125 23.816406 4.203125 Z M 23.816406 4.484375 C 34.183594 4.484375 42.527344 12.828125 42.527344 23.199219 C 42.527344 33.566406 34.183594 41.910156 23.816406 41.910156 C 13.445312 41.910156 5.101562 33.566406 5.101562 23.199219 C 5.101562 12.828125 13.445312 4.484375 23.816406 4.484375 Z M 23.816406 15.117188 C 19.339844 15.117188 15.734375 18.722656 15.734375 23.199219 C 15.734375 27.671875 19.339844 31.277344 23.816406 31.277344 C 28.289062 31.277344 31.894531 27.671875 31.894531 23.199219 C 31.894531 18.722656 28.289062 15.117188 23.816406 15.117188 Z M 23.816406 15.398438 C 28.136719 15.398438 31.613281 18.875 31.613281 23.199219 C 31.613281 27.519531 28.136719 30.996094 23.816406 30.996094 C 19.492188 30.996094 16.015625 27.519531 16.015625 23.199219 C 16.015625 18.875 19.492188 15.398438 23.816406 15.398438 Z M 23.816406 15.398438 "/>
</g>
</svg>
